static/img/icon-documentation.svg

<svg fill="none" height="24" viewBox="0 0 24 24" width="24" xmlns="http://www.w3.org/2000/svg"><g fill="#fff"><path d="m15 8.24995c-.4142 0-.75.33579-.75.75 0 .41422.3358.75.75.75h3c.4142 0 .75-.33578.75-.75 0-.41421-.3358-.75-.75-.75z"/><path d="m14.25 12.5c0-.4143.3358-.75.75-.75h3c.4142 0 .75.3357.75.75 0 .4142-.3358.75-.75.75h-3c-.4142 0-.75-.3358-.75-.75z"/><path d="m15 15.25c-.4142 0-.75.3357-.75.75 0 .4142.3358.75.75.75h3c.4142 0 .75-.3358.75-.75 0-.4143-.3358-.75-.75-.75z"/><path clip-rule="evenodd" d="m9.08402 2.45113c1.56228.45997 2.66418 1.26174 3.28918 1.79882h6.8168c1.5686 0 2.81 1.31959 2.81 2.88689v10.71576c0 1.5625-1.2367 2.8974-2.81 2.8974h-14.38c-1.54422 0-2.81-1.2658-2.81-2.81v-10.97008c0-1.54421 1.26578-2.80999 2.81-2.80999h.28v-.28997c0-.98904.80663-1.81467 1.82586-1.77952.62625.02197 1.37044.12053 2.16816.36069zm-2.49402 1.41883c0-.17096.1334-.28527.27417-.28041.51303.01803 1.12823.09924 1.78941.2985l.00479.00142c1.18193.34763 2.04983.93337 2.59163 1.37614v12.70579c-.5104-.4473-1.1624-.8919-1.97543-1.2254l-.00161-.0006c-.90938-.3705-1.76756-.4916-2.42551-.5245l-.0102-.0004c-.12848-.0047-.24725-.1157-.24725-.2705zm6.16 15.38004v-13.50005h6.44c.6914 0 1.31.59839 1.31 1.38689v10.71576c0 .7934-.6233 1.3974-1.31 1.3974zm-2.3236 0c-.4247-.4023-.99096-.8166-1.72009-1.1158-.70848-.2885-1.38828-.3875-1.92945-.4149-.96855-.0384-1.68686-.846-1.68686-1.7693v-10.29007h-.28c-.71579 0-1.31.59421-1.31 1.30999v10.97008c0 .7157.59421 1.31 1.31 1.31z" fill-rule="evenodd"/></g></svg>

<svg width="24" height="24" viewBox="0 0 24 24" fill="none" xmlns="http://www.w3.org/2000/svg">
<path d="M15 8.24995C14.5858 8.24995 14.25 8.58574 14.25 8.99995C14.25 9.41417 14.5858 9.74995 15 9.74995H18C18.4142 9.74995 18.75 9.41417 18.75 8.99995C18.75 8.58574 18.4142 8.24995 18 8.24995H15Z" fill="white"/>
<path d="M14.25 12.5C14.25 12.0857 14.5858 11.75 15 11.75H18C18.4142 11.75 18.75 12.0857 18.75 12.5C18.75 12.9142 18.4142 13.25 18 13.25H15C14.5858 13.25 14.25 12.9142 14.25 12.5Z" fill="white"/>
<path d="M15 15.25C14.5858 15.25 14.25 15.5857 14.25 16C14.25 16.4142 14.5858 16.75 15 16.75H18C18.4142 16.75 18.75 16.4142 18.75 16C18.75 15.5857 18.4142 15.25 18 15.25H15Z" fill="white"/>
<path fill-rule="evenodd" clip-rule="evenodd" d="M9.08402 2.45113C10.6463 2.9111 11.7482 3.71287 12.3732 4.24995H19.19C20.7586 4.24995 22 5.56954 22 7.13684V17.8526C22 19.4151 20.7633 20.75 19.19 20.75H4.81C3.26578 20.75 2 19.4842 2 17.94V6.96992C2 5.42571 3.26578 4.15993 4.81 4.15993H5.09V3.86996C5.09 2.88092 5.89663 2.05529 6.91586 2.09044C7.54211 2.11241 8.2863 2.21097 9.08402 2.45113ZM6.59 3.86996C6.59 3.699 6.7234 3.58469 6.86417 3.58955C7.3772 3.60758 7.9924 3.68879 8.65358 3.88805L8.65837 3.88947C9.8403 4.2371 10.7082 4.82284 11.25 5.26561V17.9714C10.7396 17.5241 10.0876 17.0795 9.27457 16.746L9.27296 16.7454C8.36358 16.3749 7.5054 16.2538 6.84745 16.2209L6.83725 16.2205C6.70877 16.2158 6.59 16.1048 6.59 15.95V3.86996ZM12.75 19.25V5.74995H19.19C19.8814 5.74995 20.5 6.34834 20.5 7.13684V17.8526C20.5 18.646 19.8767 19.25 19.19 19.25H12.75ZM10.4264 19.25C10.0017 18.8477 9.43544 18.4334 8.70631 18.1342C7.99783 17.8457 7.31803 17.7467 6.77686 17.7193C5.80831 17.6809 5.09 16.8733 5.09 15.95V5.65993H4.81C4.09421 5.65993 3.5 6.25414 3.5 6.96992V17.94C3.5 18.6557 4.09421 19.25 4.81 19.25H10.4264Z" fill="white"/>
</svg>
